X:1
T:Aubrey, CM
T:Aubrey, CM
T:Charles John Vincent, Jr. (1852-1934)
T:Public Domain Courtesy of the Cyber Hymnal™
C:Charles John Vincent, Jr. (1852-1934)
Z:Public Domain
Z:Courtesy of the Cyber Hymnal™
%%score ( 1 2 ) ( 3 4 )
L:1/8
Q:1/4=110
M:4/4
K:D
V:1 treble 
V:2 treble 
V:3 bass 
V:4 bass 
V:1
 A2 | A3 F D2 F2 | A2 =A2 [F^A]2 [FA]2 | [FB]2 [FB]2 [Fc]2 [Fc]2 | [Fd]6 [F^d]2 | %5
 [Ee]3 [Ed] [Ec]2 [Ec]2 | [Ae]3 [Bd] [GB]2 [^EB]2 | [FA]2 [DF]2 [CF]3 [CE] x | D6 |] %9
V:2
 A2 | A3 F D2 F2 | ^A2 ^A2 x4 | x8 | x8 | x8 | x8 | x9 | D6 |] %9
V:3
 A,2 | A,3 F, D,2 F,2 | A,2 A,2 [F,C]2 [E,C]2 | [D,B,]2 [D,B,]2 [C,B,]2 [C,^A,]2 | %4
 [B,,B,]6 [A,B,]2 | [G,B,]3 [G,B,] A,2 [G,A,]2 | A,2 z [G,D]2 [^G,D]2 x | [A,D]2 A,2 A,3 z G, | %8
 [D,F,]6 |] %9
V:4
 A,2 | A,3 F, D,2 F,2 | A,2 A,2 x4 | x8 | x8 | x4 A,2 x2 | F,3 (D2 F,) x2 | x2 A,2 A,,2 A,,2 x | %8
 x6 |] %9

